dist/img/footer/footer-logo.svg

<svg width="69" height="67" viewBox="0 0 69 67" fill="none" xmlns="http://www.w3.org/2000/svg">
<path d="M69 32.3355C69 48.1821 57.3116 61.3498 42.1035 63.6716C42.2318 62.9683 42.2678 62.2399 42.1814 61.5019C42.1814 61.5019 42.0906 60.7253 41.9717 59.7089C47.3712 58.789 52.2461 56.3115 56.11 52.7484C55.878 52.5555 55.647 52.3053 55.4193 51.9732C54.3931 50.4758 55.735 48.99 55.735 47.6806C55.735 46.3962 53.1455 46.5019 53.0507 45.6512C52.7235 42.7052 54.8586 42.665 55.9969 41.5268C57.1352 40.3885 54.8718 37.8006 53.4098 37.9676C51.9379 38.1248 47.7949 37.2879 48.1735 34.118C48.6347 30.2573 43.2548 30.5979 42.4844 28.7959C41.3613 26.1693 43.2283 22.9475 45.6633 22.2155C49.1124 21.1789 52.5102 18.3651 52.2448 15.2328C51.9441 11.6853 50.3384 8.4859 47.6938 6.58536C44.9417 5.47042 41.9741 4.78099 38.8693 4.60702C36.0984 4.71661 33.6622 5.33242 33.7733 6.60103C34.0459 9.70986 42.8863 10.5173 41.4028 13.4235C40.6294 14.9384 34.8248 17.0766 35.9089 19.3313C36.614 20.7976 38.3492 19.5409 37.7014 22.3558C37.4033 23.651 36.2676 26.0846 34.5211 26.2417C32.7351 26.4084 31.2479 21.677 26.3865 21.5218C24.0883 21.4483 20.8506 25.1076 23.5998 27.7036C25.2646 29.2758 28.3886 25.8141 29.3107 28.5182C29.9604 30.4237 29.2232 34.4266 32.2557 36.0995C33.3612 36.7094 35.0558 37.241 36.7319 38.0926C34.2442 38.6007 31.1874 39.5486 27.5779 40.939L24.5367 40.1366C25.8098 39.0768 27.8784 38.3308 27.3579 36.015C26.5934 32.6127 20.6859 33.8958 16.6132 29.8232C15.3638 28.574 12.6988 24.4258 12.7097 19.442C10.6797 23.2981 9.52425 27.6835 9.52425 32.3357C9.52425 33.7676 9.6335 35.1747 9.84354 36.5489C9.79563 36.5482 9.74827 36.5398 9.70047 36.5398C8.41788 36.5398 7.15998 36.8093 5.9942 37.3188C5.73669 35.6947 5.59925 34.0312 5.59925 32.3358C5.59925 14.8563 19.8201 0.63501 37.2995 0.63501C54.7791 0.634784 69 14.8561 69 32.3355ZM45.2208 41.5752L37.4786 45.134L37.5987 43.447L42.6143 41.1829C41.8989 41.1317 41.1577 41.1122 40.4176 41.1122C37.6465 41.1122 32.9645 42.515 27.7861 44.5704L11.178 40.1897C9.62594 39.7802 7.97355 40.0324 6.61418 40.8865L5.79757 41.3995C5.00035 41.9003 4.99189 43.0593 5.78167 43.5718L15.7651 50.0488C13.3802 51.2685 11.1176 52.5072 9.12288 53.6903L3.99996 50.9781C3.16317 50.5351 2.17383 50.4825 1.29498 50.8345L0.810067 51.0289C0.0869196 51.3183 -0.216027 52.1783 0.166179 52.8572L2.9883 57.8712L2.98954 57.8707C1.92478 58.7868 1.31798 59.5465 1.31798 60.0722C1.31798 61.6457 3.25427 62.0389 4.961 62.0389C8.00512 62.0389 48.2063 52.8343 48.2063 44.4952C48.2061 42.8437 47.0766 42.0178 45.2208 41.5752ZM28.2709 57.8566L37.1173 54.7404C37.5069 54.603 37.9233 54.8628 37.9713 55.2732L38.7469 61.9043C38.9407 63.5613 38.0494 65.1559 36.5366 65.8592L35.7069 66.2448C35.1888 66.4856 34.5741 66.3565 34.1965 65.9277L28.0014 58.8902C27.6998 58.5474 27.8403 58.0084 28.2709 57.8566Z" fill="black"/>
</svg>

<svg width="69" height="67" fill="none" xmlns="http://www.w3.org/2000/svg"><path d="M69 32.336c0 15.846-11.688 29.014-26.897 31.336a7.32 7.32 0 0 0 .078-2.17l-.21-1.793a27.713 27.713 0 0 0 14.139-6.96 3.749 3.749 0 0 1-.69-.776c-1.027-1.497.315-2.983.315-4.292 0-1.285-2.59-1.18-2.684-2.03-.328-2.946 1.808-2.986 2.946-4.124 1.138-1.139-1.125-3.726-2.587-3.56-1.472.158-5.615-.68-5.236-3.849.46-3.86-4.92-3.52-5.69-5.322-1.123-2.627.744-5.848 3.18-6.58 3.448-1.037 6.846-3.85 6.58-6.983-.3-3.548-1.906-6.747-4.55-8.648a27.573 27.573 0 0 0-8.825-1.978c-2.77.11-5.207.725-5.096 1.994.273 3.109 9.113 3.916 7.63 6.823-.774 1.514-6.578 3.653-5.494 5.907.705 1.467 2.44.21 1.792 3.025-.298 1.295-1.433 3.729-3.18 3.886-1.786.166-3.273-4.565-8.134-4.72-2.299-.074-5.536 3.586-2.787 6.182 1.665 1.572 4.789-1.89 5.71.814.65 1.906-.087 5.909 2.946 7.581 1.105.61 2.8 1.142 4.476 1.994-2.488.508-5.545 1.456-9.154 2.846l-3.041-.802c1.273-1.06 3.341-1.806 2.82-4.122-.764-3.402-6.671-2.12-10.744-6.192-1.25-1.249-3.914-5.397-3.903-10.381a27.599 27.599 0 0 0-3.186 12.894c0 1.432.11 2.839.32 4.213-.048 0-.096-.01-.144-.01a9.24 9.24 0 0 0-3.706.78 31.795 31.795 0 0 1-.395-4.983C5.6 14.856 19.82.635 37.3.635S69 14.856 69 32.335Zm-23.78 9.24-7.741 3.558.12-1.687 5.015-2.264a30.992 30.992 0 0 0-2.196-.07c-2.771 0-7.453 1.402-12.632 3.457l-16.608-4.38a5.798 5.798 0 0 0-4.564.697l-.816.513c-.798.5-.806 1.66-.016 2.172l9.983 6.477a122.89 122.89 0 0 0-6.642 3.641L4 50.978a3.222 3.222 0 0 0-2.705-.144l-.485.195a1.288 1.288 0 0 0-.644 1.828l2.822 5.014h.002c-1.065.916-1.672 1.675-1.672 2.201 0 1.574 1.936 1.967 3.643 1.967 3.044 0 43.245-9.205 43.245-17.544 0-1.651-1.13-2.477-2.985-2.92Zm-16.95 16.28 8.847-3.116a.644.644 0 0 1 .854.533l.776 6.631a3.866 3.866 0 0 1-2.21 3.955l-.83.386a1.289 1.289 0 0 1-1.51-.317L28 58.89a.644.644 0 0 1 .27-1.033Z" fill="#000"/></svg>
